svgs/light/comment-image.svg

<svg xmlns="http://www.w3.org/2000/svg" viewBox="0 0 512 512"><!--! Font Awesome Pro 6.3.0 by @fontawesome - https://fontawesome.com License - https://fontawesome.com/license (Commercial License) Copyright 2023 Fonticons, Inc. --><path d="M160 184c13.25 0 24-10.75 24-24c0-13.26-10.75-24-24-24S136 146.7 136 160C136 173.3 146.7 184 160 184zM256 32C114.7 32 .0273 125.1 .0273 240c0 47.63 19.91 91.25 52.91 126.3c-14.87 39.5-45.87 72.88-46.37 73.25c-6.623 7-8.373 17.25-4.623 26C5.816 474.3 14.38 480 24 480c61.49 0 109.1-25.75 139.1-46.25C192.1 442.8 223.3 448 256 448C397.4 448 512 354.9 512 240S397.4 32 256 32zM256 416c-28.25 0-56.24-4.25-83.24-12.75c-9.516-3.068-19.92-1.461-28.07 4.338c-22.1 16.25-58.54 35.29-102.7 39.66c11.1-15.12 29.75-40.5 40.74-69.63l.1289-.3398c4.283-11.27 1.791-23.1-6.43-32.82C47.51 313.1 32.06 277.6 32.06 240c0-97 100.5-176 223.1-176c123.5 0 223.1 79 223.1 176S379.5 416 256 416zM313.6 155.2c-11.61-14.22-36.39-14.25-47.97 0L207.1 227.1L199.2 218.8c-11.47-11.94-33.27-11.94-44.73 0L104 271.2c-8.453 8.844-10.44 21.5-5.047 32.28C103.1 313.5 114.8 320 126.4 320h259.2c11.3 0 21.59-5.906 26.86-15.44c5.609-10.16 4.469-22.53-2.875-31.53L313.6 155.2zM131.1 288L176.1 241l20.44 21.22c3.188 3.312 7.562 5 12.19 4.906c4.578-.2187 8.859-2.344 11.75-5.906l68.28-85.84l91.75 112.6L131.1 288z"/></svg>

<svg xmlns="http://www.w3.org/2000/svg" viewBox="0 0 512 512"><!-- Font Awesome Pro 6.0.0-alpha2 by @fontawesome - https://fontawesome.com License - https://fontawesome.com/license (Commercial License) --><path d="M160 184C173.254 184 184 173.254 184 160C184 146.744 173.254 136 160 136S136 146.744 136 160C136 173.254 146.746 184 160 184ZM256.033 32C114.678 32 0.068 125.125 0.068 240C0.068 287.625 19.941 331.25 52.935 366.25C38.062 405.75 7.066 439.125 6.566 439.5C-0.057 446.5 -1.807 456.75 1.943 465.5C5.816 474.25 14.316 480 23.939 480C85.431 480 133.926 454.25 163.047 433.75C192.043 442.75 223.289 448 256.033 448C397.39 448 512 354.875 512 240S397.39 32 256.033 32ZM256.033 416C227.787 416 199.791 411.75 172.795 403.25C163.279 400.182 152.873 401.789 144.726 407.588L144.674 407.625C121.678 423.875 86.181 442.875 42.062 447.25C54.06 432.125 71.808 406.75 82.806 377.625L82.935 377.285C87.219 366.014 84.726 353.287 76.506 344.463L76.308 344.25C47.312 313.75 32.064 277.625 32.064 240C32.064 143 132.551 64 256.033 64C379.517 64 480.004 143 480.004 240S379.517 416 256.033 416ZM313.594 155.219C301.984 141 277.203 140.969 265.625 155.219L207.078 227.062L199.172 218.844C187.703 206.906 165.906 206.906 154.437 218.844L104.015 271.188C95.562 280.031 93.578 292.688 98.969 303.469C103.984 313.5 114.765 320 126.406 320H385.594C396.89 320 407.187 314.094 412.453 304.562C418.062 294.406 416.922 282.031 409.578 273.031L313.594 155.219ZM131.062 288L176.109 241.031L196.547 262.25C199.734 265.562 204.109 267.25 208.734 267.156C213.312 266.938 217.594 264.812 220.484 261.25L288.765 175.406L380.515 288.031L131.062 288Z"/></svg>
